X: 26175
T: McKenna's
R: reel
M: 4/4
K: Dmajor
d2 AG FDEF|G2 A,B, CEAc|d2 AG FGAc|B^deg fdec|
d2 AG FDEF|G2 A,B, CEAc|dcdA BcdB|1 AFGE FD D2:|2 AFGE FDDg||
fgaf defd|Beed cAAg|fgaf defd|Beec d3e|
fgaf defd|Beed cABc|dfeg fagb|afge d3e:|

